X:1
T:Title
%%score { ( 1 3 ) | 2 }
L:1/8
Q:1/4=81
M:6/8
K:Ab
V:1 treble nm="Grand Piano"
V:3 treble 
V:2 bass 
V:1
 [Cc][CB][CA] [DG]3 | BAF E3 | FFF G2 [_CA] | G6 | AAA [FB]2 [Fc] | .[Fd]3 c3 | %6
w: C.~H.~Forrest * * *||||||
 [Fc][FB][Dd] [Ec]2 [DB] | [CA]6 |] %8
w: ||
V:2
 [A,,E,][A,,E,][A,,E,] [B,,E,]3 | [D,F,D][D,F,D][D,A,D] [C,A,]3 | %2
 [D,A,D][D,A,D][D,A,D] [=D,G,_C]2 [G,,F,] | [C,=E,C]6 | [F,C][F,C][F,C] [D,F,]2 [C,=A,] | %5
 .[B,,B,]2 [E,G,E] [A,,A,]3 | [D,A,][D,B,][B,,B,] [E,A,]2 [E,G,] | [A,,A,]6 |] %8
V:3
 x6 | x6 | x6 | x6 | x6 | z A,e E2 =E | x6 | x6 |] %8

